**kern	**kern	**dynam
*part1	*part1	*part1
*staff2	*staff1	*
*I"Piano	*	*
*clefF4	*clefG2	*
*k[b-]	*k[b-]	*
=1	=1	=1
*	*^	*
4C	4e	[2A	.
4D	4f	.	.
4BBn	4d	2A]	[
4FF	4Bn	.	.
*	*v	*v	*
=	=	=
4CC	2G 2c 2e	.
4GG	.	.
4C	4r	.
4E 4G#X	4Bn 4e	mf
=	=	=
4D 4A	4d 4f	<
4C 4c	4e 4g	.
4FF 4F	4c 4a	.
4AA 4E	4d 4a 4cc	.
=	=	=
*	*^	*
4GG#X	4cc 4ee	2e	[ >
4E	4b- 4dd	.	.
4AA 4A	4e 4a 4cc	2ryy	.
4AA	4c 4a 4cc	.	] <
*	*v	*v	*
=	=	=
4BB-X	4d 4f 4b-	.
4C	4c 4e 4a	[ >
4D	4B- 4d 4g	.
4EE	4B- 4d 4b-	.
=	=	=
*^	*	*
4FF	2ryy	4A 4d 4a	.
4GG	.	4B- 4d 4f	]
4E	4AA	4c#X 4e	.
4C#X	4ryy	4A	p
*v	*v	*	*
=	=	=
4D	4F#X 4d	<
4BBn	4G 4d	.
4AA	4A 4f#X	.
4FF#X	4d 4a	.
=	=	=
*-	*-	*-
!!!system-decoration: {(s1,s2)}
